usr/share/icons/biglinux-icons-material-dark/symbolic/status/install-symbolic.svg

<svg xmlns="http://www.w3.org/2000/svg" viewBox="0 0 22 22">
<defs id="defs3051">
<style id="current-color-scheme" type="text/css">
.ColorScheme-Contrast{color:#232629}
</style>
</defs>
<path d="M8 3v6h1V4h4v5h1V3zm-2.207 7L5 10.816 11 17l6-6.184-.793-.816L11 15.367zM4 17v2h14v-2h-1v1H5v-1z" class="ColorScheme-Contrast" style="fill:currentColor;fill-opacity:1;stroke:none"/>
</svg>

<svg xmlns="http://www.w3.org/2000/svg" viewBox="0 0 22 22">
  <defs id="defs3051">
    <style type="text/css" id="current-color-scheme">
      .ColorScheme-Text {
        color:#232629;
      }
      </style>
  </defs>
 <path 
    style="fill:currentColor;fill-opacity:1;stroke:none" 
    d="M 8 3 L 8 9 L 9 9 L 9 4 L 13 4 L 13 9 L 14 9 L 14 3 L 13 3 L 9 3 L 8 3 z M 5.7929688 10 L 5 10.816406 L 11 17 L 17 10.816406 L 16.207031 10 L 11 15.367188 L 5.7929688 10 z M 4 17 L 4 19 L 5 19 L 17 19 L 18 19 L 18 17 L 17 17 L 17 18 L 5 18 L 5 17 L 4 17 z "
    class="ColorScheme-Text"
    />  
</svg>
